src/sprite-icons/target.svg

<svg width="48" height="48" viewBox="0 0 48 48" fill="none" xmlns="http://www.w3.org/2000/svg">
<g clip-path="url(#clip0_1457_20712)">
<path d="M34.8749 14.55C33.5249 15.9 32.1749 17.25 30.7499 18.675C32.3999 20.85 32.9999 23.325 32.3999 26.025C31.8749 28.125 30.6749 29.85 28.8749 31.05C25.3499 33.525 20.6249 33 17.6999 29.85C14.6999 26.625 14.5499 21.9 17.3999 18.525C19.9499 15.45 24.8999 13.95 29.3249 17.175C30.6749 15.825 32.0249 14.475 33.3749 13.05C30.9749 11.025 28.1999 9.825 24.8999 9.6C24.8999 10.5 24.8999 11.325 24.8999 12.225C24.8999 12.975 24.5249 13.425 23.9249 13.425C23.3249 13.425 22.9499 12.975 22.9499 12.225C22.9499 10.275 22.9499 8.4 22.9499 6.45C22.9499 6.225 22.9499 6 22.9499 5.775C21.0749 5.85 19.2749 6.225 17.5499 6.9C11.5499 9.3 7.72488 13.65 6.14988 19.95C6.14988 20.1 6.07488 20.175 6.07488 20.325C5.92488 20.85 5.47488 21.15 4.94988 21.075C4.42488 20.925 4.12488 20.475 4.19988 19.875C4.72488 17.175 5.77488 14.7 7.34988 12.525C11.0999 7.5 15.9749 4.575 22.1999 3.975C22.4249 3.975 22.7249 3.9 23.0249 3.9C23.0249 3.075 23.0249 2.175 23.0249 1.35C23.0249 0.45 23.3249 0 23.9999 0C24.5999 0 24.9749 0.45 24.9749 1.275C24.9749 3.225 24.9749 5.1 24.9749 7.05C24.9749 7.275 24.9749 7.5 24.9749 7.725C28.7249 8.025 32.0249 9.375 34.7999 11.775C35.2499 11.325 35.6249 10.875 36.1499 10.35C35.1749 9.675 34.2749 8.925 33.2249 8.325C31.5749 7.35 29.8499 6.6 27.9749 6.225C27.8249 6.225 27.6749 6.15 27.5999 6.15C27.0749 6 26.7749 5.475 26.9249 4.95C27.0749 4.425 27.5249 4.125 28.1249 4.275C30.5249 4.725 32.6999 5.625 34.7249 6.975C35.6999 7.65 36.5999 8.325 37.7249 9.15C37.7999 8.85 38.0249 8.625 38.0249 8.4C38.0249 7.35 38.0249 6.375 38.0249 5.325C38.0249 4.95 38.1749 4.5 38.4749 4.275C39.6749 3 40.9499 1.725 42.2249 0.45C42.5999 0.075 42.9749 -0.075 43.4249 0.15C43.8749 0.3 44.0249 0.75 44.0249 1.2C44.0249 2.175 44.0249 3.075 44.0249 4.125C44.9999 4.125 45.9749 4.125 46.9499 4.125C47.4749 4.125 47.8499 4.275 48.0749 4.725C48.2249 5.25 48.0749 5.625 47.6999 5.925C46.4249 7.125 45.2249 8.4 44.0249 9.6C43.7249 9.9 43.2749 10.05 42.8999 10.05C41.9249 10.125 40.8749 10.05 39.8999 10.05C39.6749 10.05 39.3749 10.275 39.0749 10.35C40.7249 12.225 41.9249 14.1 42.8249 16.275C43.7249 18.45 44.1749 20.625 44.3249 23.025C45.2249 23.025 46.1249 23.025 46.9499 23.025C47.6999 23.025 48.1499 23.4 48.1499 24C48.1499 24.6 47.6999 24.975 46.9499 24.975C44.9999 24.975 43.0499 24.975 41.0999 24.975C40.8749 24.975 40.6499 24.975 40.5749 24.975C40.1249 26.625 39.8999 28.275 39.2999 29.775C37.3499 34.8 33.7499 38.1 28.5749 39.675C28.4249 39.675 28.3499 39.75 28.1999 39.75C27.5999 39.9 27.1499 39.6 26.9999 39.075C26.8499 38.55 27.1499 38.1 27.7499 37.875C28.1249 37.725 28.4999 37.65 28.7999 37.5C34.4999 35.325 37.7249 31.125 38.3999 25.125C38.3999 25.05 38.3999 25.05 38.3999 24.9C37.5749 24.9 36.6749 24.9 35.8499 24.9C35.0999 24.9 34.6499 24.525 34.6499 23.925C34.6499 23.325 35.0999 22.95 35.8499 22.95C37.7999 22.95 39.6749 22.95 41.6249 22.95C41.8499 22.95 42.0749 22.95 42.2999 22.95C41.9999 18.675 40.4999 14.925 37.7249 11.775C37.2749 12.225 36.8249 12.675 36.3749 13.125C36.4499 13.2 36.5249 13.35 36.6749 13.5C38.0999 15.225 39.1499 17.175 39.7499 19.35C40.0499 20.25 39.8249 20.775 39.2249 21C38.6249 21.15 38.1749 20.775 37.9499 19.95C37.1999 18 36.2249 16.2 34.8749 14.55ZM27.8999 18.675C25.6499 16.8 21.7499 16.65 19.1249 19.35C16.5749 22.05 16.5749 26.025 19.1999 28.65C21.8249 31.275 25.8749 31.35 28.4999 28.8C31.1999 26.25 31.1999 22.35 29.2499 19.95C28.8749 20.325 28.5749 20.625 28.1999 21C27.8999 21.225 27.9749 21.45 28.1249 21.75C28.6499 22.8 28.8749 23.85 28.5749 24.975C27.9749 27.6 25.2749 29.25 22.7249 28.575C20.0999 27.9 18.5249 25.125 19.2749 22.575C20.0999 19.95 22.8749 18.375 25.3499 19.425C26.3999 19.875 26.9999 19.575 27.5249 18.825C27.7499 18.825 27.8249 18.75 27.8999 18.675ZM26.5499 22.725C25.8749 23.4 25.2749 24.075 24.6749 24.675C24.2999 25.05 23.7749 25.05 23.3999 24.675C23.0249 24.3 22.9499 23.85 23.2499 23.4C23.3999 23.25 23.5499 23.1 23.6999 22.95C24.2249 22.425 24.7499 21.9 25.2749 21.375C23.8499 20.775 22.4249 21.225 21.6749 22.35C20.9249 23.475 21.0749 24.975 22.0499 25.95C23.0249 26.925 24.4499 27.075 25.6499 26.325C26.6999 25.575 27.1499 24.15 26.5499 22.725ZM39.8999 8.1C40.7249 8.1 41.4749 8.1 42.2249 8.1C42.3749 8.1 42.5999 8.1 42.6749 8.025C43.2749 7.425 43.9499 6.75 44.6999 6C44.0249 6 43.4999 6 43.0499 6C42.3749 6 41.9999 5.625 41.9999 4.95C41.9999 4.425 41.9999 3.9 41.9999 3.225C41.2499 3.975 40.6499 4.575 40.0499 5.175C39.9749 5.25 39.8999 5.4 39.8999 5.55C39.8249 6.45 39.8999 7.2 39.8999 8.1Z" fill="white"/>
<path d="M3.7498 24.975C2.9248 24.975 2.0248 24.975 1.1248 24.975C0.374805 24.975 -0.0751953 24.6 -0.0751953 24C-0.0751953 23.4 0.374805 23.1 1.0498 23.025C3.2248 23.025 5.3248 23.025 7.4998 23.025C7.79981 21.75 7.94981 20.55 8.32481 19.35C8.62481 18.375 9.07481 17.4 9.44981 16.5C9.74981 15.9 10.2748 15.675 10.7998 15.975C11.3248 16.275 11.4748 16.8 11.0998 17.4C10.1998 19.2 9.5998 21.075 9.52481 23.1C10.3498 23.1 11.0998 23.1 11.9248 23.1C12.8248 23.1 13.2748 23.4 13.3498 24.075C13.3498 24.75 12.8998 25.05 11.9248 25.05C10.0498 25.05 8.24981 25.05 6.3748 25.05C6.14981 25.05 5.9248 25.05 5.6998 25.05C5.7748 26.625 5.9998 28.125 6.52481 29.55C8.77481 36.075 13.1998 40.2 19.8748 41.85C20.0998 41.925 20.3998 42 20.6248 42.15C20.9998 42.45 21.1498 42.825 20.9248 43.275C20.6998 43.725 20.3248 43.95 19.7998 43.875C17.4748 43.35 15.2248 42.525 13.1998 41.25C7.79981 37.5 4.6498 32.4 3.8998 25.8C3.8998 25.575 3.8248 25.35 3.8248 25.125C3.8248 25.125 3.8248 25.05 3.7498 24.975Z" fill="white"/>
<path d="M24.9748 44.175C24.9748 45.075 24.9748 45.9 24.9748 46.8C24.9748 47.55 24.5998 48 23.9998 48C23.3998 48 23.0248 47.55 23.0248 46.8C23.0248 44.85 23.0248 42.9 23.0248 40.95C23.0248 40.725 23.0248 40.5 23.0248 40.35C22.0498 40.2 21.1498 40.05 20.2498 39.825C14.1748 38.25 10.1998 34.5 8.32481 28.5C8.24981 28.275 8.1748 28.125 8.1748 27.9C8.1748 27.375 8.39981 27.075 8.84981 26.925C9.29981 26.775 9.74981 26.925 9.97481 27.375C10.0498 27.6 10.1248 27.825 10.1998 28.05C11.8498 33.75 17.1748 38.1 23.0248 38.325C23.0248 37.5 23.0248 36.6 23.0248 35.775C23.0248 35.025 23.3998 34.575 23.9248 34.575C24.5248 34.575 24.8998 35.025 24.8998 35.775C24.8998 37.65 24.8998 39.6 24.8998 41.475C24.8998 41.7 24.8998 41.925 24.8998 42.3C26.0998 42.075 27.2998 41.925 28.4248 41.7C30.4498 41.25 32.2498 40.425 33.9748 39.3C34.1248 39.225 34.2748 39.075 34.4248 39C34.8748 38.85 35.2498 38.925 35.5498 39.3C35.8498 39.675 35.7748 40.125 35.4748 40.425C35.3248 40.575 35.0998 40.725 34.8748 40.875C31.9498 42.75 28.7248 43.8 25.2748 44.1C25.2748 44.1 25.1248 44.175 24.9748 44.175Z" fill="white"/>
<path d="M40.3505 35.3249C39.3755 35.3249 39.0005 34.5749 39.3755 33.7499C40.0505 32.3999 40.7255 30.975 41.3255 29.55C41.5505 28.95 41.7005 28.275 41.8505 27.675C42.0005 27.075 42.4505 26.7749 42.9755 26.8499C43.5005 26.9999 43.8005 27.4499 43.7255 28.1249C43.2755 30.5249 42.3755 32.6999 41.0255 34.7249C40.8005 35.0249 40.5005 35.2499 40.3505 35.3249Z" fill="white"/>
<path d="M15.3754 12.225C15.1504 12 14.7754 11.775 14.6254 11.4C14.4004 10.95 14.7004 10.575 15.0754 10.275C16.5004 9.37498 18.0754 8.62498 19.7254 8.24998C20.2504 8.09998 20.6254 8.24998 20.8504 8.69998C21.1504 9.22498 20.9254 9.89998 20.3254 10.125C18.7504 10.575 17.3254 11.175 15.9754 12.075C15.9004 12.075 15.7504 12.075 15.3754 12.225Z" fill="white"/>
<path d="M13.6504 13.65C13.6504 14.175 13.2004 14.55 12.6754 14.55C12.1504 14.55 11.7754 14.1 11.7754 13.575C11.7754 13.05 12.2254 12.675 12.7504 12.675C13.2004 12.675 13.6504 13.125 13.6504 13.65Z" fill="white"/>
<path d="M38.7 37.35C38.7 37.875 38.25 38.325 37.725 38.325C37.2 38.325 36.75 37.95 36.75 37.425C36.75 36.9 37.125 36.45 37.65 36.45C38.25 36.45 38.7 36.825 38.7 37.35Z" fill="white"/>
</g>
<defs>
<clipPath id="clip0_1457_20712">
<rect width="48" height="48" fill="white"/>
</clipPath>
</defs>
</svg>

<svg width="48" height="48" fill="none" xmlns="http://www.w3.org/2000/svg"><g clip-path="url(#a)" fill="#fff"><path d="m34.875 14.55-4.125 4.125c1.65 2.175 2.25 4.65 1.65 7.35-.525 2.1-1.725 3.825-3.525 5.025-3.525 2.475-8.25 1.95-11.175-1.2-3-3.225-3.15-7.95-.3-11.325 2.55-3.075 7.5-4.575 11.925-1.35 1.35-1.35 2.7-2.7 4.05-4.125-2.4-2.025-5.175-3.225-8.475-3.45v2.625c0 .75-.375 1.2-.975 1.2s-.975-.45-.975-1.2v-6.45c-1.875.075-3.675.45-5.4 1.125-6 2.4-9.825 6.75-11.4 13.05 0 .15-.075.225-.075.375-.15.525-.6.825-1.125.75-.525-.15-.825-.6-.75-1.2.525-2.7 1.575-5.175 3.15-7.35 3.75-5.025 8.625-7.95 14.85-8.55.225 0 .525-.075.825-.075V1.35c0-.9.3-1.35.975-1.35.6 0 .975.45.975 1.275v6.45c3.75.3 7.05 1.65 9.825 4.05.45-.45.825-.9 1.35-1.425-.975-.675-1.875-1.425-2.925-2.025-1.65-.975-3.375-1.725-5.25-2.1-.15 0-.3-.075-.375-.075a.963.963 0 0 1-.675-1.2c.15-.525.6-.825 1.2-.675 2.4.45 4.575 1.35 6.6 2.7.975.675 1.875 1.35 3 2.175.075-.3.3-.525.3-.75V5.325c0-.375.15-.825.45-1.05C39.675 3 40.95 1.725 42.225.45c.375-.375.75-.525 1.2-.3.45.15.6.6.6 1.05v2.925h2.925c.525 0 .9.15 1.125.6.15.525 0 .9-.375 1.2-1.275 1.2-2.475 2.475-3.675 3.675-.3.3-.75.45-1.125.45-.975.075-2.025 0-3 0-.225 0-.525.225-.825.3 1.65 1.875 2.85 3.75 3.75 5.925.9 2.175 1.35 4.35 1.5 6.75h2.625c.75 0 1.2.375 1.2.975s-.45.975-1.2.975h-6.375c-.45 1.65-.675 3.3-1.275 4.8-1.95 5.025-5.55 8.325-10.725 9.9-.15 0-.225.075-.375.075-.6.15-1.05-.15-1.2-.675-.15-.525.15-.975.75-1.2.375-.15.75-.225 1.05-.375 5.7-2.175 8.925-6.375 9.6-12.375V24.9h-2.55c-.75 0-1.2-.375-1.2-.975s.45-.975 1.2-.975h6.45c-.3-4.275-1.8-8.025-4.575-11.175l-1.35 1.35c.075.075.15.225.3.375 1.425 1.725 2.475 3.675 3.075 5.85.3.9.075 1.425-.525 1.65-.6.15-1.05-.225-1.275-1.05-.75-1.95-1.725-3.75-3.075-5.4ZM27.9 18.675c-2.25-1.875-6.15-2.025-8.775.675-2.55 2.7-2.55 6.675.075 9.3 2.625 2.625 6.675 2.7 9.3.15 2.7-2.55 2.7-6.45.75-8.85L28.2 21c-.3.225-.225.45-.075.75.525 1.05.75 2.1.45 3.225-.6 2.625-3.3 4.275-5.85 3.6-2.625-.675-4.2-3.45-3.45-6 .825-2.625 3.6-4.2 6.075-3.15 1.05.45 1.65.15 2.175-.6.225 0 .3-.075.375-.15Zm-1.35 4.05c-.675.675-1.275 1.35-1.875 1.95-.375.375-.9.375-1.275 0-.375-.375-.45-.825-.15-1.275l.45-.45 1.575-1.575c-1.425-.6-2.85-.15-3.6.975a2.847 2.847 0 0 0 .375 3.6c.975.975 2.4 1.125 3.6.375 1.05-.75 1.5-2.175.9-3.6ZM39.9 8.1h2.325c.15 0 .375 0 .45-.075L44.7 6h-1.65C42.375 6 42 5.625 42 4.95V3.225l-1.95 1.95a.573.573 0 0 0-.15.375c-.075.9 0 1.65 0 2.55Z"/><path d="M3.75 24.975H1.125c-.75 0-1.2-.375-1.2-.975s.45-.9 1.125-.975H7.5c.3-1.275.45-2.475.825-3.675.3-.975.75-1.95 1.125-2.85.3-.6.825-.825 1.35-.525.525.3.675.825.3 1.425-.9 1.8-1.5 3.675-1.575 5.7h2.4c.9 0 1.35.3 1.425.975 0 .675-.45.975-1.425.975H5.7c.075 1.575.3 3.075.825 4.5 2.25 6.525 6.675 10.65 13.35 12.3.225.075.525.15.75.3.375.3.525.675.3 1.125-.225.45-.6.675-1.125.6-2.325-.525-4.575-1.35-6.6-2.625C7.8 37.5 4.65 32.4 3.9 25.8c0-.225-.075-.45-.075-.675 0 0 0-.075-.075-.15Z"/><path d="M24.975 44.175V46.8c0 .75-.375 1.2-.975 1.2s-.975-.45-.975-1.2V40.35c-.975-.15-1.875-.3-2.775-.525C14.175 38.25 10.2 34.5 8.325 28.5c-.075-.225-.15-.375-.15-.6 0-.525.225-.825.675-.975.45-.15.9 0 1.125.45l.225.675c1.65 5.7 6.975 10.05 12.825 10.275v-2.55c0-.75.375-1.2.9-1.2.6 0 .975.45.975 1.2V42.3c1.2-.225 2.4-.375 3.525-.6 2.025-.45 3.825-1.275 5.55-2.4.15-.075.3-.225.45-.3.45-.15.825-.075 1.125.3.3.375.225.825-.075 1.125-.15.15-.375.3-.6.45-2.925 1.875-6.15 2.925-9.6 3.225 0 0-.15.075-.3.075ZM40.35 35.325c-.974 0-1.35-.75-.974-1.575a71.769 71.769 0 0 0 1.95-4.2c.224-.6.374-1.275.524-1.875.15-.6.6-.9 1.125-.825.526.15.825.6.75 1.275-.45 2.4-1.35 4.575-2.7 6.6-.224.3-.524.525-.675.6ZM15.375 12.225c-.225-.225-.6-.45-.75-.825-.225-.45.075-.825.45-1.125 1.425-.9 3-1.65 4.65-2.025.525-.15.9 0 1.125.45.3.525.075 1.2-.525 1.425-1.575.45-3 1.05-4.35 1.95-.075 0-.225 0-.6.15ZM13.65 13.65c0 .525-.45.9-.975.9-.525 0-.9-.45-.9-.975 0-.525.45-.9.975-.9.45 0 .9.45.9.975ZM38.7 37.35c0 .525-.45.975-.975.975-.525 0-.975-.375-.975-.9s.375-.975.9-.975c.6 0 1.05.375 1.05.9Z"/></g><defs><clipPath id="a"><path fill="#fff" d="M0 0h48v48H0z"/></clipPath></defs></svg>
